packages/core/src/svgs/tokens/branded/DXP.svg

<svg width="24" height="24" viewBox="0 0 24 24" fill="none" xmlns="http://www.w3.org/2000/svg">
<path d="M2.80018 10.0723C2.54655 10.3252 2.3453 10.6257 2.20799 10.9565C2.07067 11.2873 2 11.6419 2 12.0001C2 12.3583 2.07067 12.7129 2.20799 13.0437C2.3453 13.3745 2.54655 13.6749 2.80018 13.9278L4.05016 15.1778H19.9499L21.1998 13.9278C21.4535 13.6749 21.6548 13.3745 21.7921 13.0437C21.9294 12.7129 22 12.3583 22 12.0001C22 11.6419 21.9294 11.2873 21.7921 10.9565C21.6548 10.6257 21.4535 10.3252 21.1998 10.0723L19.8722 8.74459H4.12794L2.79463 10.0779L2.80018 10.0723Z" fill="#5FADFF"/>
<path d="M11.8058 21.9944C11.151 21.9477 10.5353 21.6655 10.0725 21.1999L4.05591 15.1778H19.9556L13.9279 21.1999C13.466 21.6675 12.8502 21.9517 12.1947 21.9999H11.8058V21.9944Z" fill="#2B56FE"/>
<path d="M2.24487 13.1279C2.38046 13.4258 2.56866 13.6968 2.80042 13.9278L6.07815 17.2056C6.18369 17.3001 6.2837 17.4 6.38369 17.5055C6.63824 17.7763 6.94552 17.992 7.28661 18.1395C7.6277 18.287 7.99538 18.3631 8.36699 18.3631C8.73861 18.3631 9.10628 18.287 9.44738 18.1395C9.78843 17.992 10.0958 17.7763 10.3502 17.5055C10.7836 17.0389 11.328 16.6167 11.9614 16.6167C12.5947 16.6167 13.1392 17.0389 13.5725 17.5055C13.827 17.7763 14.1343 17.992 14.4754 18.1395C14.8164 18.287 15.1842 18.3631 15.5558 18.3631C15.9273 18.3631 16.2951 18.287 16.6361 18.1395C16.9772 17.992 17.2845 17.7763 17.5391 17.5055C17.7336 17.3001 17.9502 17.1 18.1835 16.9445L21.2 13.9278C21.4501 13.6779 21.6445 13.3945 21.7724 13.089C21.3835 13.239 21.0501 13.4667 20.7723 13.7667C20.3279 14.2279 19.7891 14.6501 19.1557 14.6501C18.5168 14.6501 17.9779 14.2279 17.5446 13.7612C17.2901 13.4904 16.9828 13.2746 16.6417 13.1272C16.3007 12.9797 15.9329 12.9036 15.5613 12.9036C15.1897 12.9036 14.822 12.9797 14.4809 13.1272C14.1399 13.2746 13.8325 13.4904 13.578 13.7612C13.1392 14.2279 12.5947 14.6501 11.967 14.6501C11.328 14.6501 10.7836 14.2279 10.3502 13.7612C10.0958 13.4904 9.78843 13.2746 9.44738 13.1272C9.10628 12.9797 8.73861 12.9036 8.36699 12.9036C7.99538 12.9036 7.6277 12.9797 7.28661 13.1272C6.94552 13.2746 6.63824 13.4904 6.38369 13.7612C5.94481 14.2279 5.40593 14.6501 4.77261 14.6501C4.13374 14.6501 3.59485 14.2279 3.16153 13.7612C2.90271 13.4894 2.59067 13.2738 2.24487 13.1279Z" fill="#3B82FF"/>
<path d="M19.8724 8.74459L21.2057 10.0779C21.4001 10.2723 21.5612 10.489 21.6835 10.7224C21.3372 10.5747 21.0251 10.3572 20.7669 10.0834C20.3335 9.62235 19.7891 9.19458 19.1557 9.19458C18.5168 9.19458 17.9779 9.62235 17.5446 10.0834C17.2901 10.3542 16.9828 10.5699 16.6417 10.7174C16.3007 10.865 15.9329 10.941 15.5613 10.941C15.1898 10.941 14.822 10.865 14.481 10.7174C14.1399 10.5699 13.8326 10.3542 13.578 10.0834C13.1392 9.62235 12.6003 9.19458 11.967 9.19458C11.3281 9.19458 10.7836 9.62235 10.3503 10.0834C10.0958 10.3542 9.78847 10.5699 9.44742 10.7174C9.10632 10.865 8.73864 10.941 8.36703 10.941C7.99541 10.941 7.62774 10.865 7.28665 10.7174C6.94556 10.5699 6.63827 10.3542 6.38373 10.0834C5.9504 9.62235 5.40596 9.19458 4.77264 9.19458C4.13377 9.19458 3.59489 9.62235 3.16157 10.0834C2.92824 10.3279 2.65046 10.5279 2.33936 10.6779C2.46158 10.4612 2.61713 10.2557 2.80045 10.0723L4.12821 8.74459L10.0726 2.80024C10.3254 2.5466 10.6259 2.34537 10.9567 2.20805C11.2875 2.07074 11.6421 2.00005 12.0003 2.00005C12.3585 2.00005 12.7131 2.07074 13.0439 2.20805C13.3747 2.34537 13.6752 2.5466 13.928 2.80024L17.0891 5.95575L19.8724 8.74459Z" fill="#B1E1FF"/>
</svg>

<svg xmlns="http://www.w3.org/2000/svg" width="24" height="24" fill="none" viewBox="0 0 24 24">
    <path fill="#5FADFF" d="M2.8 10.072a2.723 2.723 0 0 0 0 3.856l1.25 1.25h15.9l1.25-1.25a2.72 2.72 0 0 0 0-3.856l-1.328-1.327H4.128l-1.333 1.333z"/>
    <path fill="#2B56FE" d="M11.806 21.994a2.72 2.72 0 0 1-1.733-.794l-6.017-6.022h15.9L13.928 21.2a2.72 2.72 0 0 1-1.733.8h-.39z"/>
    <path fill="#3B82FF" d="M2.245 13.128c.135.298.324.569.555.8l3.278 3.278q.157.141.306.3a2.72 2.72 0 0 0 3.966 0c.434-.467.978-.89 1.611-.89.634 0 1.178.423 1.611.89a2.72 2.72 0 0 0 3.967 0c.195-.206.411-.406.644-.561l3.017-3.017c.25-.25.445-.534.572-.839q-.583.226-1 .678c-.444.46-.983.883-1.616.883-.64 0-1.178-.422-1.611-.889a2.72 2.72 0 0 0-3.967 0c-.439.467-.983.89-1.611.89-.639 0-1.183-.423-1.617-.89a2.72 2.72 0 0 0-3.063-.634 2.7 2.7 0 0 0-.903.634c-.44.467-.978.89-1.611.89-.64 0-1.178-.423-1.611-.89a2.7 2.7 0 0 0-.917-.633"/>
    <path fill="#B1E1FF" d="m19.872 8.745 1.334 1.333q.293.293.477.644a2.7 2.7 0 0 1-.916-.639c-.433-.46-.978-.888-1.611-.888-.64 0-1.178.427-1.611.888a2.72 2.72 0 0 1-3.967 0c-.439-.46-.978-.888-1.611-.888-.639 0-1.183.427-1.617.888a2.72 2.72 0 0 1-3.966 0c-.434-.46-.978-.888-1.611-.888-.64 0-1.178.427-1.611.888a2.8 2.8 0 0 1-.823.595 2.8 2.8 0 0 1 .461-.606l1.328-1.327L10.073 2.8a2.72 2.72 0 0 1 3.855 0l3.161 3.156z"/>
</svg>
